!!!COM: Edouard Lalo
!!!CNT: Francais
!!!TXO: Francais
!!!OTL: La Pauvre Femme
!!!OPR: 6 Romances Populaires
!!!ONM: No. 1
!!!LYR: Pierre Jean de Be/ranger
!!!ENC: Jacob Pegg
!!!YOR: Romantic French Song 1830-1870, David Tunley, ed., New !!!YOR: York: Garland Publishing, Inc., 1995, vol. 3
!!!ODT: 1849/
!!NB: Vocal melody and text only encoded.
!!NB: First instance of melodic material only encoded.
**kern	**silbe
*clef G2	*
*k[b-e-a-d-]	*
*M2/4	*
=8	=8
4r	.
8.r	.
{16e-	{Il
=9	=9
[4e-	nei-
16e-]	-ge,
16r	.
16r	.
16a-	Il
=10	=10
[4b-	nei-
16b-]	-ge,
16r	.
16r	.
16ee-	et
=11	=11
[2ee-	la\,
=12	=12
8ee-]	|
8dd-	de-
8.cc-	-vant
16b-	l'e/-
=13	=13
(4b-	-gli-
8a-)}	-se,}
8r	.
=14	=14
{8f-	{U-
8f-	-ne
8f-	viel-
8f-	-le
=15	=15
4e-	pri-
4e-}	-e}
=16	=16
8r	.
{8e-	{prie
8.e-	a\
16e-	ge-
=17	=17
[4e-	-noux.
8e-]}	|}
8r	.
=18	=18
2r	.
=19	=19
2r	.
=20	=20
4r	.
16r	.
{16e-	{Sous
16e-	ses
16e-	hail-
=21	=21
8e-	-lons
16f	o\u
16g	s'en-
8a-	-gouf-
16g	-fre
16a-	la
=22	=22
8b-	bi-
16b-	-se,
16b-	C'est
16b-	du
16b-	pain
16b-	qu'el-
16a-	-le at-
=23	=23
4cc}	-tend,}
{8.cc	{C'est
16b-	du
=24	=24
8b-	pain
16a-	qu'el-
16g	-le at-
(16g	-tend
8f)	|
16e-	de
=25	=25
[4e-	nous.
8e-]}	|}
!!tie added
8r	.
=26	=26
{[4dd-	{seule,
16dd-]	|
16r	.
16b-	a\
16g	ta^-
=27	=27
[4a-	-tons,
16a-]	|
16r	.
16e-	au
16a-	par-
=28	=28
4.b-	-vis
16cc	No-
16dd-	-tre
=29	=29
[8ee-	Da-
16ee-]}	-me,}
16r	.
{8.e-	{El-
16e-	-le
=30	=30
8.f	vient,
16g	hi-
[4a-	-ver
=31	=31
8.a-]	|
16r	.
8.a-	comme
16g	e/-
=32	=32
(2b-;	-te/.
ccq)}	|}
=33	=33
{4cc	{Elle
8.b-	est
16a-	a-
=34	=34
4g	-veugle,
(8.f	he/-
16e-)	|
=35	=35
8dd-	-las!
8dd-	la
8.cc	pau-
16b-	-vre
=36	=36
(4b-	fem-
4a-)}	-me.}
=37	=37
8r	.
{8b-	{Ah
8cc	fai-
8dd-	-sons
=38	=38
[2ee-	lui
=39	=39
8ee-]	|
8b-	la
8cc	cha-
8dd-	-ri-
=40	=40
2ee-	-te/
=41	=41
4dd-	Ah
8cc	fai-
8b-	-sons
=42	=42
4a-	lui
(8g	la
8f)	|
=43	=43
4.g	cha-
8a-	-ri-
=44	=44
[4a-	-te/.
8a-]}	|}
8r	.
!!45-52 voice tacit
=53	=53
{4cc	{Sa-
8.b-	-vez~
16a-	~vous
=54	=54
4g	bien
8.f	ce
16e-	que
=55	=55
(8a-	fut
8g)	|
8.a-	cet-
16cc	-te
=56	=56
(4cc	fem-
4b-)}	-me}
=57	=57
{4dd-	{Au
4cc	teint
=58	=58
4.b-	ha^ve,
8f	aux
=59	=59
4f	traits
8.g	a-
16an	-mai-
=60	=60
2b-}	-gris?}
=61	=61
{4b-	{D'un
8.g	grand
16e-	spec-
=62	=62
4a-	-tacle
8.g	au-
16a-	-tre-
=63	=63
(8an	-fois
8b-)	|
8.cc	la
16dd-	mer-
=64	=64
[4ee-	-veil-
8ee-]}	-le,}
{8a-	{Ses
=65	=65
4a-	chants
8.a-	ra-
16b-	-vis-
=66	=66
4g	-saient,
8.a-	ra-
16an	-vis-
=67	=67
(8cc	-saient
8b-)	|
8.a-	tout
16f	Pa-
=68	=68
2e-}	-ris.}
=69	=69
{4e-	{Les
8.a-	jeu-
16cc-	-nes
=70	=70
4cc-	gens,
8b-	dans
8e-	le
=71	=71
4e-	rire
8a-	ou
8cc-	les
=72	=72
(4cc-	lar-
4b-)}	-mes}
=73	=73
{4ee-	{S'ex-
4dd-	-al-
=74	=74
4.cc-	-taient
8a-	de-
=75	=75
4a-	-vant
8.a-	sa
16g	beau-
=76	=76
(2b-;	-te/
ccq)}	|}
=77	=77
{[8cc	{Tous,
16cc]	|
16r	.
8.b-	ils
16a-	ont
=78	=78
4g	du^
(8.f	des
16e-)	|
=79	=79
8dd-	re^-
8dd-	-ves
8.cc	a\
16b-	ses
=80	=80
(4b-	char-
4a-)}	-mes.}
=81	=81
8r	.
{8b-	{Ah
8cc	fai-
8dd-	-sons
=83	=83
[2ee-	lui
=84	=84
8ee-]	|
8b-	la
8cc	cha-
8dd-	-ri-
=85	=85
2ee-	-te!/
=86	=86
4dd-	Ah
8cc	fai-
8b-	-sons
=87	=87
4a-	lui
(8g	la
8f)	|
=88	=88
(4.g	cha-
8a-)	-ri-
=89	=89
[4a-	-te/.
8a-]}	|}
8r	.
!!4 melodically equivalent couplets follow.
*-	*-
